assets/gcpcertificateauthorityservice/original.svg

<svg height="24" width="24" xmlns="http://www.w3.org/2000/svg"><path d="m12 0-9.7 4.4v6.5c-.1 6.1 4.1 11.7 9.7 13.1 5.6-1.4 9.7-7 9.7-13.1v-6.5z" fill="#4285f4"/><path d="m21.7 12c-.1.8-.2 1.6-.4 2.2-.2.9-.5 1.6-.7 2.1-.1.3-.2.5-.3.7-.2.3-.3.6-.5.9-.4.7-.8 1.2-1.2 1.7s-.9 1-1.5 1.6c-.6.5-.7.7-1.4 1.1s-1.1.7-2.4 1.2c-.3.2-.7.3-1.3.5l-3.2-4.4v-13.6h7.9z" fill="#2879ea"/><path d="m12 3.3c3 0 5.4 2.4 5.4 5.5 0 1.8-.8 3.4-2.2 4.4v6.5l-3.2-3.1-3.2 3.1v-6.5c-1.3-1-2.2-2.6-2.2-4.4-0-3.1 2.4-5.5 5.4-5.5m0 8.2c1.5 0 2.7-1.2 2.7-2.7s-1.2-2.8-2.7-2.8-2.7 1.2-2.7 2.7 1.2 2.8 2.7 2.8" fill="#fff"/></svg>

<svg xmlns="http://www.w3.org/2000/svg" xml:space="preserve" width="24" height="24" baseProfile="tiny" overflow="visible"><path fill="#4285f4" d="M12 0 2.3 4.4v6.5C2.2 17 6.4 22.6 12 24c5.6-1.4 9.7-7 9.7-13.1V4.4z"/><path fill="#2879ea" d="M21.7 12c-.1.8-.2 1.6-.4 2.2-.2.9-.5 1.6-.7 2.1-.1.3-.2.5-.3.7-.2.3-.3.6-.5.9-.4.7-.8 1.2-1.2 1.7s-.9 1-1.5 1.6c-.6.5-.7.7-1.4 1.1s-1.1.7-2.4 1.2c-.3.2-.7.3-1.3.5l-3.2-4.4V6h7.9z"/><path fill="#fff" d="M12 3.3c3 0 5.4 2.4 5.4 5.5 0 1.8-.8 3.4-2.2 4.4v6.5L12 16.6l-3.2 3.1v-6.5c-1.3-1-2.2-2.6-2.2-4.4C6.6 5.7 9 3.3 12 3.3m0 8.2c1.5 0 2.7-1.2 2.7-2.7S13.5 6 12 6 9.3 7.2 9.3 8.7s1.2 2.8 2.7 2.8"/></svg>
